src/assets/svg/yandex.svg

<svg width="36" height="36" viewBox="0 0 40 40"><path d="M40 19.9998C40 15.3727 38.3955 10.8888 35.4601 7.31203C32.5247 3.73526 28.4399 1.28696 23.9017 0.384294C19.3635 -0.518371 14.6527 0.180446 10.5719 2.36168C6.49121 4.5429 3.29304 8.07159 1.52236 12.3465C-0.248326 16.6214 -0.481969 21.378 0.861239 25.8058C2.20445 30.2337 5.0414 34.0588 8.88871 36.6294C12.736 39.2001 17.3557 40.3572 21.9605 39.9036C26.5653 39.4501 30.8704 37.4139 34.1422 34.142C35.9994 32.2848 37.4726 30.08 38.4776 27.6535C39.4827 25.227 40 22.6263 40 19.9998Z" fill="#F3F2FA"></path><path d="M19.8111 34.9999C25.7819 34.9999 30.6222 30.1656 30.6222 24.2021C30.6222 18.2386 25.7819 13.4043 19.8111 13.4043C13.8403 13.4043 9 18.2386 9 24.2021C9 30.1656 13.8403 34.9999 19.8111 34.9999Z" fill="#FFCC00"></path><path fill-rule="evenodd" clip-rule="evenodd" d="M25.2245 13.1957L25.2246 23.2971L25.2007 23.3051C25.2008 23.3094 25.2008 23.3137 25.2008 23.318C25.2008 24.306 25.129 25.2276 24.9951 25.698C24.3508 27.9601 22.2667 29.6009 19.7952 29.6009C16.8098 29.6009 14.4214 27.1917 14.4214 24.2099C14.4214 21.2282 16.8098 18.8189 19.7952 18.8189C21.2019 18.8189 22.483 19.3556 23.4447 20.235C23.7589 20.5224 24.0389 20.8463 24.2781 21.2001C24.2118 20.8835 24.1464 20.4851 24.1464 20.1446V12.316V8L31.1823 10.1532V15.0297L25.2245 13.1957Z" fill="#FF3333"></path></svg>

<?xml version="1.0" encoding="UTF-8" standalone="no"?>
<svg width="36" xmlns="http://www.w3.org/2000/svg" viewBox="0 0 40 40" height="36">
 <path d="m40 20c0-4.627-1.604-9.111-4.54-12.688-2.935-3.5767-7.02-6.025-11.558-6.9277-4.538-0.90267-9.249-0.20385-13.33 1.9774-4.0808 2.1812-7.279 5.7099-9.0496 9.9843-1.7707 4.275-2.0044 9.032-0.66116 13.46s4.1802 8.253 8.0275 10.823c3.8473 2.571 8.4673 3.728 13.071 3.275 4.605-0.454 8.91-2.49 12.182-5.762 1.857-1.857 3.331-4.062 4.336-6.488 1.005-2.427 1.522-5.028 1.522-7.654z" fill="#F3F2FA"/>
 <path d="m19.811 35c5.971 0 10.811-4.834 10.811-10.798 0-5.963-4.84-10.798-10.811-10.798s-10.811 4.835-10.811 10.798c0 5.964 4.84 10.798 10.811 10.798z" fill="#fc0"/>
 <path fill="#f33" clip-rule="evenodd" d="m25.224 13.196l0.001 10.101-0.024 0.008v0.013c0 0.988-0.072 1.91-0.206 2.38-0.644 2.262-2.728 3.903-5.2 3.903-2.985 0-5.374-2.409-5.374-5.391s2.389-5.391 5.374-5.391c1.407 0 2.688 0.537 3.65 1.416 0.314 0.287 0.594 0.611 0.833 0.965-0.066-0.316-0.132-0.715-0.132-1.055v-12.145l7.036 2.153v4.877l-5.958-1.834z" fill-rule="evenodd"/>
</svg>
